packages/ui-icons/svg/Solid/dashboard.svg

<svg viewBox="0 0 1920 1920" version="1.1" xmlns="http://www.w3.org/2000/svg">
    <path d="M960,282 C1489.35529,282 1920,712.757647 1920,1242 C1920,1319.13882 1911.07765,1395.14824 1893.45882,1467.88235 L1882.95529,1511.02588 L1322.76706,1511.02588 C1295.66118,1585.90588 1242.91765,1651.86353 1167.24706,1692.07059 C1119.36,1717.25647 1065.6,1730.69647 1011.61412,1730.69647 C888.169412,1730.69647 775.567059,1663.04471 717.854118,1554.05647 C711.981176,1542.87529 705.995294,1528.30588 700.009412,1511.02588 L37.0447059,1511.02588 L26.5411765,1467.88235 C8.92235294,1395.14824 0,1319.13882 0,1242 C0,712.757647 430.644706,282 960,282 Z M1128.16941,1511.02588 C1175.83059,1461.67059 1189.38353,1385.88706 1155.50118,1321.96235 C1113.26118,1242.45176 751.736471,908.371765 751.736471,908.371765 C751.736471,908.371765 825.374118,1395.14824 867.501176,1474.65882 C874.842353,1488.55059 884.442353,1500.18353 894.72,1511.02588 L893.816471,1511.02588 C895.849412,1513.17176 898.334118,1514.64 900.367059,1516.56 C904.997647,1520.96471 909.741176,1525.03059 914.710588,1528.75765 C918.437647,1531.58118 922.390588,1534.06588 926.230588,1536.43765 C931.425882,1539.6 936.621176,1542.53647 942.155294,1545.24706 C946.447059,1547.16706 950.738824,1548.97412 955.256471,1550.66824 C960.677647,1552.58824 966.211765,1554.39529 971.971765,1555.75059 C976.715294,1556.99294 981.458824,1558.00941 986.202353,1558.8 C991.962353,1559.70353 997.609412,1560.26824 1003.36941,1560.49412 C1006.19294,1560.60706 1008.90353,1561.28471 1011.61412,1561.28471 C1013.53412,1561.28471 1015.45412,1560.60706 1017.37412,1560.60706 C1025.61882,1560.38118 1033.75059,1559.25176 1041.88235,1557.67059 C1045.60941,1556.88 1049.44941,1556.54118 1053.17647,1555.52471 C1064.92235,1552.36235 1076.44235,1548.29647 1087.51059,1542.31059 L1087.84941,1542.31059 L1087.84941,1542.19765 C1103.54824,1533.95294 1116.53647,1522.99765 1128.16941,1511.02588 Z M1489.69412,885.218824 L1602.40941,772.503529 L1482.69176,652.672941 L1369.86353,765.388235 L1489.69412,885.218824 Z M875.294118,630.762353 L1044.70588,630.762353 L1044.70588,471.289412 L875.294118,471.289412 L875.294118,630.762353 Z M430.305882,885.218824 L550.136471,765.388235 L437.421176,652.672941 L317.590588,772.503529 L430.305882,885.218824 Z" stroke="none" stroke-width="1" fill-rule="evenodd"/>
</svg>

<svg viewBox="0 0 1920 1920" xmlns="http://www.w3.org/2000/svg">
    <path d="M960 282c529.355 0 960 430.758 960 960 0 77.139-8.922 153.148-26.541 225.882l-10.504 43.144h-560.188c-27.106 74.88-79.85 140.838-155.52 181.045-47.887 25.185-101.647 38.625-155.633 38.625-123.445 0-236.047-67.651-293.76-176.64-5.873-11.18-11.859-25.75-17.845-43.03H37.045l-10.504-43.144C8.922 1395.148 0 1319.14 0 1242c0-529.242 430.645-960 960-960Zm168.17 1229.026c47.66-49.355 61.214-125.139 27.331-189.064-42.24-79.51-403.765-413.59-403.765-413.59s73.638 486.776 115.765 566.287c7.341 13.892 16.941 25.525 27.219 36.367h-.904c2.033 2.146 4.518 3.614 6.551 5.534 4.63 4.405 9.374 8.47 14.344 12.198 3.727 2.823 7.68 5.308 11.52 7.68 5.195 3.162 10.39 6.098 15.924 8.81 4.292 1.92 8.584 3.726 13.101 5.42 5.422 1.92 10.956 3.727 16.716 5.083a159.91 159.91 0 0 0 14.23 3.049c5.76.904 11.407 1.468 17.167 1.694 2.824.113 5.535.79 8.245.79 1.92 0 3.84-.677 5.76-.677 8.245-.226 16.377-1.355 24.508-2.936 3.727-.791 7.567-1.13 11.294-2.146 11.746-3.163 23.266-7.229 34.335-13.214h.338v-.113c15.7-8.245 28.687-19.2 40.32-31.172Zm361.524-625.807 112.715-112.715-119.717-119.831-112.828 112.715 119.83 119.83Zm-614.4-254.457h169.412V471.29H875.294v159.473ZM430.306 885.22l119.83-119.83-112.715-112.716-119.83 119.83L430.306 885.22Z" fill-rule="evenodd"/>
</svg>
